; generated by Slic3r 1.0.0RC1 on 2014-02-10 at 23:10:47

; layer_height = 0.2
; perimeters = 2
; top_solid_layers = 4
; bottom_solid_layers = 4
; fill_density = 0.3
; perimeter_speed = 50
; infill_speed = 80
; travel_speed = 150
; nozzle_diameter = 0.35
; filament_diameter = 3
; extrusion_multiplier = 1.20
; perimeters extrusion width = 0.35mm
; infill extrusion width = 0.52mm
; solid infill extrusion width = 0.52mm
; top infill extrusion width = 0.52mm
; first layer extrusion width = 0.33mm

G21 ; set units to millimeters
M190 S75 ; wait for bed temperature to be reached
M104 S192 ; set temperature
G28 ; home all axes
G90 ; use absolute coordinates
G21 ; set units to millimeters
G92 E0 ; reset extrusion distance
G1 Z10 F100
M116 ; Wait for bed and hotend to reach temperature
G1 X0 Y100 E20 F800 ; Extrude 20mm
G92 E0 ; reset extrusion
G1 X10 Z0 F100
M109 S192 ; wait for temperature to be reached
G90 ; use absolute coordinates
G92 E0
M82 ; use absolute distances for extrusion
G1 F1200.000 E-1.00000
G92 E0
G1 Z0.300 F9000.000
G1 X32.910 Y65.450 F9000.000
G1 E1.00000 F1200.000
G1 X33.670 Y65.110 E1.01418 F1500.000
G1 X34.310 Y64.860 E1.02587
G1 X34.970 Y64.690 E1.03748
G1 X35.790 Y64.520 E1.05173
G1 X36.780 Y64.390 E1.06873
G1 X37.200 Y64.370 E1.07589
G1 X122.810 Y64.370 E2.53343
G1 X123.220 Y64.390 E2.54042
G1 X124.200 Y64.520 E2.55725
G1 X125.020 Y64.690 E2.57151
G1 X125.660 Y64.860 E2.58278
G1 X126.290 Y65.100 E2.59426
G1 X127.060 Y65.440 E2.60859
G1 X127.670 Y65.740 E2.62017
G1 X128.240 Y66.120 E2.63183
G1 X128.910 Y66.610 E2.64596
G1 X129.410 Y67.020 E2.65697
G1 X129.870 Y67.470 E2.66793
G1 X130.430 Y68.090 E2.68215
G1 X130.850 Y68.620 E2.69366
G1 X131.220 Y69.180 E2.70509
G1 X131.640 Y69.910 E2.71943
G1 X131.930 Y70.490 E2.73047
G1 X132.170 Y71.090 E2.74147
G1 X132.430 Y71.880 E2.75563
G1 X132.600 Y72.530 E2.76707
G1 X132.710 Y73.190 E2.77846
G1 X132.800 Y74.030 E2.79285
G1 X132.830 Y74.700 E2.80426
G1 X132.830 Y125.300 E3.66575
G1 X132.800 Y125.980 E3.67734
G1 X132.710 Y126.810 E3.69155
G1 X132.600 Y127.470 E3.70294
G1 X132.430 Y128.110 E3.71422
G1 X132.170 Y128.900 E3.72838
G1 X131.930 Y129.500 E3.73938
G1 X131.640 Y130.080 E3.75042
G1 X131.220 Y130.810 E3.76476
G1 X130.850 Y131.370 E3.77618
G1 X130.430 Y131.900 E3.78770
G1 X129.870 Y132.520 E3.80192
G1 X129.400 Y132.990 E3.81324
G1 X128.870 Y133.410 E3.82475
G1 X128.190 Y133.900 E3.83902
G1 X127.650 Y134.250 E3.84998
G1 X127.080 Y134.540 E3.86086
G1 X126.320 Y134.880 E3.87504
G1 X125.680 Y135.130 E3.88674
G1 X125.020 Y135.300 E3.89834
G1 X124.200 Y135.470 E3.91260
G1 X123.370 Y135.590 E3.92688
G1 X122.960 Y135.620 E3.93388
G1 X37.500 Y135.630 E5.38886
G1 X36.630 Y135.590 E5.40369
G1 X35.790 Y135.470 E5.41814
G1 X34.970 Y135.300 E5.43239
G1 X34.310 Y135.130 E5.44400
G1 X33.670 Y134.880 E5.45570
G1 X32.910 Y134.540 E5.46987
G1 X32.340 Y134.250 E5.48076
G1 X31.800 Y133.900 E5.49172
G1 X31.120 Y133.410 E5.50598
G1 X30.590 Y132.990 E5.51750
G1 X30.120 Y132.520 E5.52881
G1 X29.560 Y131.900 E5.54304
G1 X29.140 Y131.370 E5.55455
G1 X28.770 Y130.810 E5.56598
G1 X28.350 Y130.080 E5.58032
G1 X28.060 Y129.500 E5.59136
G1 X27.820 Y128.900 E5.60236
G1 X27.560 Y128.110 E5.61652
G1 X27.380 Y127.430 E5.62850
G1 X27.270 Y126.740 E5.64039
G1 X27.190 Y125.910 E5.65459
G1 X27.170 Y125.300 E5.66498
G1 X27.170 Y74.690 E6.52663
G1 X27.190 Y74.080 E6.53702
G1 X27.270 Y73.250 E6.55122
G1 X27.380 Y72.560 E6.56312
G1 X27.560 Y71.880 E6.57509
G1 X27.820 Y71.090 E6.58925
G1 X28.060 Y70.490 E6.60025
G1 X28.350 Y69.910 E6.61129
G1 X28.770 Y69.180 E6.62563
G1 X29.140 Y68.620 E6.63706
G1 X29.560 Y68.090 E6.64857
G1 X30.120 Y67.470 E6.66280
G1 X30.590 Y67.000 E6.67411
G1 X31.120 Y66.580 E6.68563
G1 X31.800 Y66.090 E6.69990
G1 X32.340 Y65.740 E6.71085
G1 X32.865 Y65.473 E6.72089
G1 F1200.000 E5.72089
G92 E0
G1 X110.801 Y80.401 F9000.000
G1 E1.00000 F1200.000
G1 X124.399 Y80.401 E1.23152 F1500.000
G1 X124.399 Y89.899 E1.39324
G1 X110.801 Y89.899 E1.62476
G1 X110.801 Y80.451 E1.78562
G1 X111.135 Y80.735 F9000.000
G1 X124.065 Y80.735 E2.00576 F1500.000
G1 X124.065 Y89.565 E2.15609
G1 X111.135 Y89.565 E2.37623
G1 X111.135 Y80.785 E2.52571
G1 X111.135 Y80.401 F9000.000
G1 F1200.000 E1.52571
G92 E0
G1 X116.524 Y118.878 F9000.000
G1 E1.00000 F1200.000
G1 X120.476 Y118.878 E1.06728 F1500.000
G1 X122.452 Y122.300 E1.13457
G1 X120.476 Y125.722 E1.20185
G1 X116.524 Y125.722 E1.26913
G1 X114.548 Y122.300 E1.33642
G1 X116.499 Y118.921 E1.40285
G1 X116.717 Y119.212 F9000.000
G1 X120.283 Y119.212 E1.46356 F1500.000
G1 X122.066 Y122.300 E1.52427
G1 X120.283 Y125.388 E1.58498
G1 X116.717 Y125.388 E1.64569
G1 X114.934 Y122.300 E1.70640
G1 X116.692 Y119.255 E1.76626
G1 X116.775 Y118.883 F9000.000
G1 X45.452 Y122.300 F9000.000
G1 X43.476 Y125.722 E1.83354 F1500.000
G1 X39.524 Y125.722 E1.90083
G1 X37.548 Y122.300 E1.96811
G1 X39.524 Y118.878 E2.03539
G1 X43.476 Y118.878 E2.10268
G1 X45.427 Y122.257 E2.16911
G1 X45.066 Y122.300 F9000.000
G1 X43.283 Y125.388 E2.22982 F1500.000
G1 X39.717 Y125.388 E2.29053
G1 X37.934 Y122.300 E2.35124
G1 X39.717 Y119.212 E2.41195
G1 X43.283 Y119.212 E2.47266
G1 X45.041 Y122.257 E2.53252
G1 X45.322 Y122.515 F9000.000
G1 F1200.000 E1.53252
G92 E0
G1 X37.999 Y128.779 F9000.000
G1 E1.00000 F1200.000
G1 X37.134 Y128.779 E1.01473 F1500.000
G1 X36.419 Y128.627 E1.02718
G1 X35.751 Y128.329 E1.03963
G1 X35.159 Y127.900 E1.05208
G1 X34.670 Y127.356 E1.06453
G1 X34.304 Y126.723 E1.07698
G1 X34.078 Y126.027 E1.08943
G1 X33.999 Y125.274 E1.10232
G1 X33.999 Y74.726 E1.96292
G1 X34.078 Y73.973 E1.97581
G1 X34.304 Y73.277 E1.98826
G1 X34.670 Y72.644 E2.00071
G1 X35.159 Y72.101 E2.01317
G1 X35.751 Y71.671 E2.02562
G1 X36.419 Y71.373 E2.03807
G1 X37.134 Y71.221 E2.05052
G1 X37.999 Y71.221 E2.06524
G1 X37.999 Y71.199 E2.06561
G1 X122.001 Y71.199 E3.49577
G1 X122.001 Y71.221 E3.49614
G1 X122.866 Y71.221 E3.51087
G1 X123.581 Y71.373 E3.52332
G1 X124.249 Y71.671 E3.53577
G1 X124.841 Y72.101 E3.54822
G1 X125.330 Y72.644 E3.56067
G1 X125.696 Y73.277 E3.57312
G1 X125.922 Y73.973 E3.58557
G1 X126.001 Y74.726 E3.59847
G1 X126.001 Y125.274 E4.45906
G1 X125.922 Y126.027 E4.47196
G1 X125.696 Y126.723 E4.48441
G1 X125.330 Y127.356 E4.49686
G1 X124.841 Y127.900 E4.50931
G1 X124.249 Y128.329 E4.52176
G1 X123.581 Y128.627 E4.53421
G1 X122.866 Y128.779 E4.54666
G1 X122.001 Y128.779 E4.56138
G1 X122.001 Y128.801 E4.56176
G1 X38.028 Y128.801 E5.99143
G1 X37.665 Y129.113 F9000.000
G1 X37.099 Y129.113 E6.00106 F1500.000
G1 X36.315 Y128.946 E6.01471
G1 X35.583 Y128.620 E6.02835
G1 X34.934 Y128.149 E6.04200
G1 X34.398 Y127.554 E6.05565
G1 X33.997 Y126.859 E6.06929
G1 X33.750 Y126.097 E6.08294
G1 X33.665 Y125.291 E6.09674
G1 X33.665 Y74.709 E6.95792
G1 X33.750 Y73.903 E6.97172
G1 X33.997 Y73.141 E6.98536
G1 X34.398 Y72.446 E6.99901
G1 X34.934 Y71.851 E7.01266
G1 X35.583 Y71.380 E7.02630
G1 X36.315 Y71.054 E7.03995
G1 X37.099 Y70.887 E7.05360
G1 X37.665 Y70.887 E7.06323
G1 X37.665 Y70.865 E7.06360
G1 X122.335 Y70.865 E8.50514
G1 X122.335 Y70.887 E8.50551
G1 X122.901 Y70.887 E8.51514
G1 X123.685 Y71.054 E8.52879
G1 X124.417 Y71.380 E8.54244
G1 X125.065 Y71.851 E8.55608
G1 X125.602 Y72.446 E8.56973
G1 X126.003 Y73.141 E8.58338
G1 X126.250 Y73.903 E8.59702
G1 X126.335 Y74.709 E8.61082
G1 X126.335 Y125.291 E9.47201
G1 X126.250 Y126.097 E9.48580
G1 X126.003 Y126.859 E9.49945
G1 X125.602 Y127.554 E9.51309
G1 X125.065 Y128.149 E9.52674
G1 X124.417 Y128.620 E9.54039
G1 X123.685 Y128.946 E9.55403
G1 X122.901 Y129.113 E9.56768
G1 X122.335 Y129.113 E9.57731
G1 X122.335 Y129.135 E9.57769
G1 X37.693 Y129.135 E11.01874
G1 X37.498 Y128.824 F9000.000
G1 X35.398 Y127.794 F9000.000
G1 X35.097 Y127.493 E11.02601 F1500.000
G1 X34.417 Y126.340 F9000.000
G1 X36.487 Y128.410 E11.07589 F1500.000
G1 X37.089 Y128.538 E11.08637
G1 X34.273 Y125.723 E11.15422
G1 X34.225 Y125.201 E11.16315
G1 X37.577 Y128.553 E11.24392
G1 X38.050 Y128.553 E11.25199
G1 X34.225 Y124.728 E11.34417
G1 X34.225 Y124.255 E11.35223
G1 X38.545 Y128.575 E11.45634
G1 X39.018 Y128.575 E11.46440
G1 X34.225 Y123.782 E11.57991
G1 X34.225 Y123.309 E11.58798
G1 X39.491 Y128.575 E11.71489
G1 X39.965 Y128.575 E11.72295
G1 X34.225 Y122.835 E11.86127
G1 X34.225 Y122.362 E11.86933
G1 X40.438 Y128.575 E12.01905
G1 X40.911 Y128.575 E12.02712
G1 X34.225 Y121.889 E12.18824
G1 X34.225 Y121.416 E12.19630
G1 X41.384 Y128.575 E12.36883
G1 X41.857 Y128.575 E12.37689
G1 X34.225 Y120.943 E12.56082
G1 X34.225 Y120.470 E12.56889
G1 X38.971 Y125.215 E12.68325
G1 X39.703 Y125.948 F9000.000
G1 X42.330 Y128.575 E12.74656 F1500.000
G1 X42.804 Y128.575 E12.75462
G1 X40.177 Y125.948 E12.81793
G1 X40.650 Y125.948 E12.82599
G1 X43.277 Y128.575 E12.88930
G1 X43.750 Y128.575 E12.89736
G1 X41.123 Y125.948 E12.96067
G1 X41.596 Y125.948 E12.96873
G1 X44.223 Y128.575 E13.03204
G1 X44.696 Y128.575 E13.04010
G1 X42.069 Y125.948 E13.10341
G1 X42.542 Y125.948 E13.11147
G1 X45.169 Y128.575 E13.17478
G1 X45.643 Y128.575 E13.18284
G1 X43.016 Y125.948 E13.24615
G1 X43.489 Y125.948 E13.25421
G1 X46.116 Y128.575 E13.31752
G1 X46.589 Y128.575 E13.32558
G1 X43.736 Y125.723 E13.39433
G1 X43.910 Y125.423 E13.40023
G1 X47.062 Y128.575 E13.47620
G1 X47.535 Y128.575 E13.48426
G1 X44.083 Y125.123 E13.56747
G1 X44.256 Y124.823 E13.57337
G1 X48.009 Y128.575 E13.66380
G1 X48.482 Y128.575 E13.67186
G1 X44.429 Y124.523 E13.76952
G1 X44.602 Y124.223 E13.77542
G1 X48.955 Y128.575 E13.88031
G1 X49.428 Y128.575 E13.88838
G1 X44.776 Y123.923 E14.00049
G1 X44.949 Y123.623 E14.00640
G1 X49.901 Y128.575 E14.12574
G1 X50.374 Y128.575 E14.13381
G1 X45.122 Y123.323 E14.26038
G1 X45.295 Y123.023 E14.26628
G1 X50.848 Y128.575 E14.40009
G1 X51.321 Y128.575 E14.40815
G1 X45.468 Y122.723 E14.54919
G1 X45.642 Y122.423 E14.55509
G1 X51.794 Y128.575 E14.70335
G1 X52.267 Y128.575 E14.71142
G1 X45.331 Y121.639 E14.87858
G1 X44.684 Y120.519 F9000.000
G1 X52.740 Y128.575 E15.07272 F1500.000
G1 X53.213 Y128.575 E15.08078
G1 X44.038 Y119.399 E15.30190
G1 X43.290 Y118.652 F9000.000
G1 X34.225 Y109.587 E15.52037 F1500.000
G1 X34.225 Y109.113 E15.52843
G1 X53.687 Y128.575 E15.99743
G1 X54.160 Y128.575 E16.00550
G1 X34.225 Y108.640 E16.48590
G1 X34.225 Y108.167 E16.49396
G1 X54.633 Y128.575 E16.98577
G1 X55.106 Y128.575 E16.99384
G1 X34.225 Y107.694 E17.49705
G1 X34.225 Y107.221 E17.50511
G1 X55.579 Y128.575 E18.01972
G1 X56.053 Y128.575 E18.02779
G1 X34.225 Y106.747 E18.55380
G1 X34.225 Y106.274 E18.56187
G1 X56.526 Y128.575 E19.09929
G1 X56.999 Y128.575 E19.10735
G1 X34.225 Y105.801 E19.65617
G1 X34.225 Y105.328 E19.66423
G1 X57.472 Y128.575 E20.22446
G1 X57.945 Y128.575 E20.23252
G1 X34.225 Y104.855 E20.80415
G1 X34.225 Y104.382 E20.81221
G1 X58.418 Y128.575 E21.39525
G1 X58.892 Y128.575 E21.40331
G1 X34.225 Y103.908 E21.99774
G1 X34.225 Y103.435 E22.00581
G1 X59.365 Y128.575 E22.61164
G1 X59.838 Y128.575 E22.61971
G1 X34.225 Y102.962 E23.23695
G1 X34.225 Y102.489 E23.24501
G1 X60.311 Y128.575 E23.87365
G1 X60.784 Y128.575 E23.88171
G1 X34.225 Y102.016 E24.52176
G1 X34.225 Y101.543 E24.52982
G1 X61.257 Y128.575 E25.18127
G1 X61.731 Y128.575 E25.18934
G1 X34.225 Y101.069 E25.85219
G1 X34.225 Y100.596 E25.86025
G1 X62.204 Y128.575 E26.53450
G1 X62.677 Y128.575 E26.54257
G1 X34.225 Y100.123 E27.22823
G1 X34.225 Y99.650 E27.23629
G1 X63.150 Y128.575 E27.93335
G1 X63.623 Y128.575 E27.94141
G1 X34.225 Y99.177 E28.64987
G1 X34.225 Y98.703 E28.65794
G1 X64.097 Y128.575 E29.37780
G1 X64.570 Y128.575 E29.38587
G1 X34.225 Y98.230 E30.11714
G1 X34.225 Y97.757 E30.12520
G1 X65.043 Y128.575 E30.86787
G1 X65.516 Y128.575 E30.87593
G1 X34.225 Y97.284 E31.63001
G1 X34.225 Y96.811 E31.63807
G1 X65.989 Y128.575 E32.40355
G1 X66.462 Y128.575 E32.41161
G1 X34.225 Y96.338 E33.18849
G1 X34.225 Y95.864 E33.19656
G1 X66.936 Y128.575 E33.98484
G1 X67.409 Y128.575 E33.99290
G1 X34.225 Y95.391 E34.79259
G1 X34.225 Y94.918 E34.80065
G1 X67.882 Y128.575 E35.61174
G1 X68.355 Y128.575 E35.61981
G1 X34.225 Y94.445 E36.44230
G1 X34.225 Y93.972 E36.45036
G1 X68.828 Y128.575 E37.28426
G1 X69.301 Y128.575 E37.29232
G1 X34.225 Y93.499 E38.13762
G1 X34.225 Y93.025 E38.14568
G1 X69.775 Y128.575 E39.00238
G1 X70.248 Y128.575 E39.01044
G1 X34.225 Y92.552 E39.87855
G1 X34.225 Y92.079 E39.88661
G1 X70.721 Y128.575 E40.76612
G1 X71.194 Y128.575 E40.77418
G1 X34.225 Y91.606 E41.66509
G1 X34.225 Y91.133 E41.67315
G1 X71.667 Y128.575 E42.57547
G1 X72.141 Y128.575 E42.58353
G1 X34.225 Y90.659 E43.49725
G1 X34.225 Y90.186 E43.50531
G1 X72.614 Y128.575 E44.43043
G1 X73.087 Y128.575 E44.43849
G1 X34.225 Y89.713 E45.37501
G1 X34.225 Y89.240 E45.38308
G1 X73.560 Y128.575 E46.33100
G1 X74.033 Y128.575 E46.33906
G1 X34.225 Y88.767 E47.29839
G1 X34.225 Y88.294 E47.30645
G1 X74.506 Y128.575 E48.27718
G1 X74.980 Y128.575 E48.28525
G1 X34.225 Y87.820 E49.26738
G1 X34.225 Y87.347 E49.27544
G1 X75.453 Y128.575 E50.26898
G1 X75.926 Y128.575 E50.27704
G1 X34.225 Y86.874 E51.28198
G1 X34.225 Y86.401 E51.29004
G1 X76.399 Y128.575 E52.30639
G1 X76.872 Y128.575 E52.31445
G1 X34.225 Y85.928 E53.34219
G1 X34.225 Y85.455 E53.35026
G1 X77.345 Y128.575 E54.38940
G1 X77.819 Y128.575 E54.39747
G1 X34.225 Y84.981 E55.44802
G1 X34.225 Y84.508 E55.45608
G1 X78.292 Y128.575 E56.51803
G1 X78.765 Y128.575 E56.52610
G1 X34.225 Y84.035 E57.59945
G1 X34.225 Y83.562 E57.60752
G1 X79.238 Y128.575 E58.69228
G1 X79.711 Y128.575 E58.70034
G1 X34.225 Y83.089 E59.79650
G1 X34.225 Y82.615 E59.80456
G1 X80.185 Y128.575 E60.91213
G1 X80.658 Y128.575 E60.92019
G1 X34.225 Y82.142 E62.03916
G1 X34.225 Y81.669 E62.04722
G1 X81.131 Y128.575 E63.17759
G1 X81.604 Y128.575 E63.18566
G1 X34.225 Y81.196 E64.32743
G1 X34.225 Y80.723 E64.33549
G1 X82.077 Y128.575 E65.48867
G1 X82.550 Y128.575 E65.49673
G1 X34.225 Y80.250 E66.66131
G1 X34.225 Y79.776 E66.66938
G1 X83.024 Y128.575 E67.84536
G1 X83.497 Y128.575 E67.85342
G1 X34.225 Y79.303 E69.04081
G1 X34.225 Y78.830 E69.04887
G1 X83.970 Y128.575 E70.24766
G1 X84.443 Y128.575 E70.25572
G1 X34.225 Y78.357 E71.46591
G1 X34.225 Y77.884 E71.47398
G1 X84.916 Y128.575 E72.69557
G1 X85.389 Y128.575 E72.70364
G1 X34.225 Y77.411 E73.93663
G1 X34.225 Y76.937 E73.94470
G1 X85.863 Y128.575 E75.18910
G1 X86.336 Y128.575 E75.19716
G1 X34.225 Y76.464 E76.45296
G1 X34.225 Y75.991 E76.46102
G1 X86.809 Y128.575 E77.72823
G1 X87.282 Y128.575 E77.73629
G1 X34.225 Y75.518 E79.01490
G1 X34.225 Y75.045 E79.02297
G1 X87.755 Y128.575 E80.31298
G1 X88.229 Y128.575 E80.32104
G1 X34.241 Y74.587 E81.62207
G1 X34.286 Y74.159 E81.62941
G1 X88.702 Y128.575 E82.94076
G1 X89.175 Y128.575 E82.94882
G1 X34.379 Y73.779 E84.26934
G1 X34.495 Y73.422 E84.27574
G1 X89.648 Y128.575 E85.60486
G1 X90.121 Y128.575 E85.61292
G1 X34.660 Y73.113 E86.94947
G1 X34.833 Y72.813 E86.95538
G1 X90.594 Y128.575 E88.29916
G1 X91.068 Y128.575 E88.30722
G1 X35.051 Y72.558 E89.65715
G1 X35.285 Y72.319 E89.66285
G1 X91.541 Y128.575 E91.01854
G1 X92.014 Y128.575 E91.02661
G1 X35.541 Y72.102 E92.38753
G1 X35.815 Y71.903 E92.39330
G1 X92.487 Y128.575 E93.75902
G1 X92.960 Y128.575 E93.76709
G1 X36.133 Y71.748 E95.13655
G1 X36.460 Y71.602 E95.14266
G1 X93.433 Y128.575 E96.51564
G1 X93.907 Y128.575 E96.52370
G1 X36.845 Y71.513 E97.89881
G1 X37.252 Y71.447 E97.90583
G1 X94.380 Y128.575 E99.28255
G1 X94.853 Y128.575 E99.29061
G1 X37.725 Y71.447 E100.66732
G1 X38.198 Y71.447 E100.67539
G1 X95.326 Y128.575 E102.05210
G1 X95.799 Y128.575 E102.06017
G1 X38.649 Y71.425 E103.43741
G1 X39.122 Y71.425 E103.44547
G1 X96.273 Y128.575 E104.82271
G1 X96.746 Y128.575 E104.83078
G1 X39.595 Y71.425 E106.20802
G1 X40.069 Y71.425 E106.21608
G1 X97.219 Y128.575 E107.59333
G1 X97.692 Y128.575 E107.60139
G1 X40.542 Y71.425 E108.97863
G1 X41.015 Y71.425 E108.98670
G1 X98.165 Y128.575 E110.36394
G1 X98.638 Y128.575 E110.37200
G1 X41.488 Y71.425 E111.74924
G1 X41.961 Y71.425 E111.75731
G1 X99.112 Y128.575 E113.13455
G1 X99.585 Y128.575 E113.14261
G1 X42.435 Y71.425 E114.51986
G1 X42.908 Y71.425 E114.52792
G1 X100.058 Y128.575 E115.90516
G1 X100.531 Y128.575 E115.91323
G1 X43.381 Y71.425 E117.29047
G1 X43.854 Y71.425 E117.29853
G1 X101.004 Y128.575 E118.67578
G1 X101.477 Y128.575 E118.68384
