; generated by Slic3r 1.0.0RC1 on 2014-02-12 at 21:03:46

; layer_height = 0.2
; perimeters = 2
; top_solid_layers = 4
; bottom_solid_layers = 4
; fill_density = 0.3
; perimeter_speed = 50
; infill_speed = 80
; travel_speed = 150
; nozzle_diameter = 0.35
; filament_diameter = 3
; extrusion_multiplier = 1.20
; perimeters extrusion width = 0.35mm
; infill extrusion width = 0.52mm
; solid infill extrusion width = 0.52mm
; top infill extrusion width = 0.52mm
; first layer extrusion width = 0.33mm

G21 ; set units to millimeters
M190 S75 ; wait for bed temperature to be reached
M104 S192 ; set temperature
G28 ; home all axes
G90 ; use absolute coordinates
G21 ; set units to millimeters
G92 E0 ; reset extrusion distance
G1 Z10 F100
M116 ; Wait for bed and hotend to reach temperature
G1 X0 Y100 E20 F800 ; Extrude 20mm
G92 E0 ; reset extrusion
G1 X10 Z0 F100
M109 S192 ; wait for temperature to be reached
G90 ; use absolute coordinates
G92 E0
M82 ; use absolute distances for extrusion
G1 F1200.000 E-1.00000
G92 E0
G1 Z0.300 F9000.000
G1 X32.910 Y65.450 F9000.000
G1 E1.00000 F1200.000
G1 X33.670 Y65.110 E1.01418 F1500.000
G1 X34.310 Y64.860 E1.02587
G1 X34.970 Y64.690 E1.03748
G1 X35.790 Y64.520 E1.05173
G1 X36.780 Y64.390 E1.06873
G1 X37.200 Y64.370 E1.07589
G1 X122.810 Y64.370 E2.53343
G1 X123.220 Y64.390 E2.54042
G1 X124.200 Y64.520 E2.55725
G1 X125.020 Y64.690 E2.57151
G1 X125.660 Y64.860 E2.58278
G1 X126.290 Y65.100 E2.59426
G1 X127.060 Y65.440 E2.60859
G1 X127.670 Y65.740 E2.62017
G1 X128.240 Y66.120 E2.63183
G1 X128.910 Y66.610 E2.64596
G1 X129.410 Y67.020 E2.65697
G1 X129.870 Y67.470 E2.66793
G1 X130.430 Y68.090 E2.68215
G1 X130.850 Y68.620 E2.69366
G1 X131.220 Y69.180 E2.70509
G1 X131.640 Y69.910 E2.71943
G1 X131.930 Y70.490 E2.73047
G1 X132.170 Y71.090 E2.74147
G1 X132.430 Y71.880 E2.75563
G1 X132.600 Y72.520 E2.76691
G1 X132.710 Y73.180 E2.77830
G1 X132.800 Y74.010 E2.79251
G1 X132.830 Y74.690 E2.80410
G1 X132.830 Y125.290 E3.66558
G1 X132.800 Y125.960 E3.67700
G1 X132.710 Y126.800 E3.69138
G1 X132.600 Y127.460 E3.70278
G1 X132.430 Y128.110 E3.71422
G1 X132.170 Y128.900 E3.72838
G1 X131.930 Y129.500 E3.73938
G1 X131.640 Y130.080 E3.75042
G1 X131.220 Y130.810 E3.76476
G1 X130.850 Y131.370 E3.77618
G1 X130.430 Y131.900 E3.78770
G1 X129.870 Y132.520 E3.80192
G1 X129.410 Y132.970 E3.81288
G1 X128.910 Y133.380 E3.82389
G1 X128.240 Y133.870 E3.83802
G1 X127.670 Y134.250 E3.84968
G1 X127.060 Y134.550 E3.86125
G1 X126.290 Y134.890 E3.87558
G1 X125.660 Y135.130 E3.88706
G1 X125.020 Y135.300 E3.89834
G1 X124.200 Y135.470 E3.91259
G1 X123.370 Y135.590 E3.92687
G1 X122.960 Y135.620 E3.93387
G1 X37.500 Y135.630 E5.38886
G1 X36.630 Y135.590 E5.40369
G1 X35.790 Y135.470 E5.41813
G1 X34.970 Y135.300 E5.43239
G1 X34.310 Y135.130 E5.44399
G1 X33.670 Y134.880 E5.45569
G1 X32.910 Y134.540 E5.46987
G1 X32.340 Y134.250 E5.48076
G1 X31.800 Y133.900 E5.49171
G1 X31.120 Y133.410 E5.50598
G1 X30.590 Y132.990 E5.51749
G1 X30.120 Y132.520 E5.52881
G1 X29.560 Y131.900 E5.54303
G1 X29.140 Y131.370 E5.55455
G1 X28.770 Y130.810 E5.56598
G1 X28.350 Y130.080 E5.58031
G1 X28.060 Y129.500 E5.59135
G1 X27.820 Y128.900 E5.60236
G1 X27.560 Y128.110 E5.61652
G1 X27.380 Y127.430 E5.62849
G1 X27.270 Y126.730 E5.64056
G1 X27.190 Y125.890 E5.65492
G1 X27.170 Y125.290 E5.66514
G1 X27.170 Y74.700 E6.52646
G1 X27.190 Y74.100 E6.53668
G1 X27.270 Y73.260 E6.55104
G1 X27.380 Y72.560 E6.56311
G1 X27.560 Y71.880 E6.57508
G1 X27.820 Y71.090 E6.58924
G1 X28.060 Y70.490 E6.60024
G1 X28.350 Y69.910 E6.61128
G1 X28.770 Y69.180 E6.62562
G1 X29.140 Y68.620 E6.63705
G1 X29.560 Y68.090 E6.64856
G1 X30.120 Y67.470 E6.66279
G1 X30.590 Y67.000 E6.67410
G1 X31.120 Y66.580 E6.68562
G1 X31.800 Y66.090 E6.69989
G1 X32.340 Y65.740 E6.71084
G1 X32.865 Y65.473 E6.72088
G1 F1200.000 E5.72088
G92 E0
G1 X115.221 Y77.003 F9000.000
G1 E1.00000 F1200.000
G1 X115.438 Y76.337 E1.01193 F1500.000
G1 X115.788 Y75.730 E1.02386
G1 X116.257 Y75.209 E1.03579
G1 X116.322 Y75.162 E1.03716
G1 X116.824 Y74.797 E1.04772
G1 X117.464 Y74.512 E1.05966
G1 X118.150 Y74.366 E1.07159
G1 X118.850 Y74.366 E1.08352
G1 X119.536 Y74.512 E1.09545
G1 X120.176 Y74.797 E1.10738
G1 X120.743 Y75.209 E1.11931
G1 X121.212 Y75.730 E1.13124
G1 X121.562 Y76.337 E1.14317
G1 X121.779 Y77.003 E1.15510
G1 X121.852 Y77.700 E1.16703
G1 X121.779 Y78.397 E1.17896
G1 X121.562 Y79.063 E1.19089
G1 X121.212 Y79.670 E1.20282
G1 X120.743 Y80.191 E1.21476
G1 X120.176 Y80.603 E1.22669
G1 X119.536 Y80.888 E1.23862
G1 X118.850 Y81.034 E1.25055
G1 X118.150 Y81.034 E1.26248
G1 X117.464 Y80.888 E1.27441
G1 X116.824 Y80.603 E1.28634
G1 X116.257 Y80.191 E1.29827
G1 X115.788 Y79.670 E1.31020
G1 X115.438 Y79.063 E1.32213
G1 X115.221 Y78.397 E1.33407
G1 X115.148 Y77.700 E1.34599
G1 X115.216 Y77.053 E1.35707
G1 X115.550 Y77.073 F9000.000
G1 X115.745 Y76.473 E1.36781 F1500.000
G1 X116.060 Y75.927 E1.37854
G1 X116.519 Y75.432 E1.39003
G1 X116.992 Y75.088 E1.39999
G1 X117.568 Y74.832 E1.41073
G1 X118.185 Y74.701 E1.42146
G1 X118.815 Y74.701 E1.43220
G1 X119.432 Y74.832 E1.44293
G1 X120.008 Y75.088 E1.45367
G1 X120.518 Y75.459 E1.46440
G1 X120.940 Y75.927 E1.47513
G1 X121.255 Y76.473 E1.48587
G1 X121.450 Y77.073 E1.49660
G1 X121.516 Y77.700 E1.50734
G1 X121.450 Y78.327 E1.51807
G1 X121.255 Y78.927 E1.52881
G1 X120.940 Y79.473 E1.53954
G1 X120.518 Y79.941 E1.55028
G1 X120.008 Y80.312 E1.56101
G1 X119.432 Y80.568 E1.57174
G1 X118.815 Y80.699 E1.58248
G1 X118.185 Y80.699 E1.59321
G1 X117.568 Y80.568 E1.60395
G1 X116.992 Y80.312 E1.61468
G1 X116.482 Y79.941 E1.62542
G1 X116.060 Y79.473 E1.63615
G1 X115.745 Y78.927 E1.64689
G1 X115.550 Y78.327 E1.65762
G1 X115.484 Y77.700 E1.66835
G1 X115.545 Y77.123 E1.67823
G1 X115.310 Y76.841 F9000.000
G1 X44.852 Y77.700 F9000.000
G1 X44.779 Y78.397 E1.69016 F1500.000
G1 X44.562 Y79.063 E1.70210
G1 X44.212 Y79.670 E1.71403
G1 X43.743 Y80.191 E1.72596
G1 X43.176 Y80.603 E1.73789
G1 X42.536 Y80.888 E1.74982
G1 X41.850 Y81.034 E1.76175
G1 X41.150 Y81.034 E1.77368
G1 X40.464 Y80.888 E1.78561
G1 X39.824 Y80.603 E1.79754
G1 X39.257 Y80.191 E1.80947
G1 X38.788 Y79.670 E1.82140
G1 X38.438 Y79.063 E1.83334
G1 X38.221 Y78.397 E1.84527
G1 X38.148 Y77.700 E1.85720
G1 X38.221 Y77.003 E1.86913
G1 X38.438 Y76.337 E1.88106
G1 X38.788 Y75.730 E1.89299
G1 X39.257 Y75.209 E1.90492
G1 X39.824 Y74.797 E1.91685
G1 X40.464 Y74.512 E1.92878
G1 X41.150 Y74.366 E1.94071
G1 X41.850 Y74.366 E1.95264
G1 X42.536 Y74.512 E1.96457
G1 X43.176 Y74.797 E1.97651
G1 X43.743 Y75.209 E1.98844
G1 X44.212 Y75.730 E2.00037
G1 X44.562 Y76.337 E2.01230
G1 X44.779 Y77.003 E2.02423
G1 X44.847 Y77.650 E2.03531
G1 X44.516 Y77.700 F9000.000
G1 X44.450 Y78.327 E2.04604 F1500.000
G1 X44.255 Y78.927 E2.05677
G1 X43.940 Y79.473 E2.06751
G1 X43.518 Y79.941 E2.07824
G1 X43.008 Y80.312 E2.08898
G1 X42.432 Y80.568 E2.09971
G1 X41.815 Y80.699 E2.11045
G1 X41.185 Y80.699 E2.12118
G1 X40.568 Y80.568 E2.13192
G1 X39.992 Y80.312 E2.14265
G1 X39.482 Y79.941 E2.15338
G1 X39.060 Y79.473 E2.16412
G1 X38.745 Y78.927 E2.17485
G1 X38.550 Y78.327 E2.18559
G1 X38.484 Y77.700 E2.19632
G1 X38.550 Y77.073 E2.20706
G1 X38.745 Y76.473 E2.21779
G1 X39.060 Y75.927 E2.22853
G1 X39.482 Y75.459 E2.23926
G1 X39.992 Y75.088 E2.25000
G1 X40.568 Y74.832 E2.26073
G1 X41.185 Y74.701 E2.27146
G1 X41.815 Y74.701 E2.28220
G1 X42.432 Y74.832 E2.29293
G1 X43.008 Y75.088 E2.30367
G1 X43.518 Y75.459 E2.31440
G1 X43.940 Y75.927 E2.32514
G1 X44.255 Y76.473 E2.33587
G1 X44.450 Y77.073 E2.34661
G1 X44.511 Y77.650 E2.35649
G1 X44.799 Y77.877 F9000.000
G1 X38.001 Y96.301 F9000.000
G1 X120.999 Y96.301 E3.76957 F1500.000
G1 X120.999 Y120.799 E4.18666
G1 X38.001 Y120.799 E5.59974
G1 X38.001 Y96.351 E6.01599
G1 X38.335 Y96.635 F9000.000
G1 X120.665 Y96.635 E7.41768 F1500.000
G1 X120.665 Y120.465 E7.82340
G1 X38.335 Y120.465 E9.22510
G1 X38.335 Y96.685 E9.62996
G1 X38.335 Y96.301 F9000.000
G1 X33.999 Y74.726 F9000.000
G1 X34.078 Y73.973 E9.64285 F1500.000
G1 X34.304 Y73.277 E9.65530
G1 X34.670 Y72.644 E9.66775
G1 X35.159 Y72.100 E9.68020
G1 X35.751 Y71.671 E9.69265
G1 X36.419 Y71.373 E9.70510
G1 X37.134 Y71.221 E9.71756
G1 X37.999 Y71.221 E9.73228
G1 X37.999 Y71.199 E9.73265
G1 X122.001 Y71.199 E11.16281
G1 X122.001 Y71.221 E11.16318
G1 X122.866 Y71.221 E11.17791
G1 X123.581 Y71.373 E11.19036
G1 X124.249 Y71.671 E11.20281
G1 X124.841 Y72.100 E11.21526
G1 X125.330 Y72.644 E11.22771
G1 X125.696 Y73.277 E11.24016
G1 X125.922 Y73.973 E11.25261
G1 X126.001 Y74.726 E11.26550
G1 X126.001 Y125.274 E12.12610
G1 X125.922 Y126.027 E12.13900
G1 X125.696 Y126.723 E12.15145
G1 X125.330 Y127.356 E12.16390
G1 X124.841 Y127.899 E12.17635
G1 X124.249 Y128.329 E12.18880
G1 X123.581 Y128.627 E12.20125
G1 X122.866 Y128.779 E12.21370
G1 X122.001 Y128.779 E12.22842
G1 X122.001 Y128.801 E12.22879
G1 X37.999 Y128.801 E13.65895
G1 X37.999 Y128.779 E13.65932
G1 X37.134 Y128.779 E13.67405
G1 X36.419 Y128.627 E13.68650
G1 X35.751 Y128.329 E13.69895
G1 X35.159 Y127.899 E13.71140
G1 X34.670 Y127.356 E13.72385
G1 X34.304 Y126.723 E13.73630
G1 X34.078 Y126.027 E13.74875
G1 X33.999 Y125.274 E13.76165
G1 X33.999 Y74.776 E14.62139
G1 X33.665 Y74.709 F9000.000
G1 X33.750 Y73.903 E14.63518 F1500.000
G1 X33.997 Y73.141 E14.64883
G1 X34.398 Y72.446 E14.66247
G1 X34.934 Y71.851 E14.67612
G1 X35.583 Y71.380 E14.68977
G1 X36.315 Y71.054 E14.70341
G1 X37.099 Y70.887 E14.71706
G1 X37.665 Y70.887 E14.72669
G1 X37.665 Y70.865 E14.72706
G1 X122.335 Y70.865 E16.16860
G1 X122.335 Y70.887 E16.16897
G1 X122.901 Y70.887 E16.17861
G1 X123.685 Y71.054 E16.19225
G1 X124.417 Y71.380 E16.20590
G1 X125.065 Y71.851 E16.21955
G1 X125.602 Y72.446 E16.23319
G1 X126.003 Y73.141 E16.24684
G1 X126.250 Y73.903 E16.26049
G1 X126.335 Y74.709 E16.27428
G1 X126.335 Y125.291 E17.13547
G1 X126.250 Y126.097 E17.14926
G1 X126.003 Y126.859 E17.16291
G1 X125.602 Y127.554 E17.17656
G1 X125.065 Y128.149 E17.19020
G1 X124.417 Y128.620 E17.20385
G1 X123.685 Y128.946 E17.21750
G1 X122.901 Y129.113 E17.23114
G1 X122.335 Y129.113 E17.24078
G1 X122.335 Y129.135 E17.24115
G1 X37.665 Y129.135 E18.68268
G1 X37.665 Y129.113 E18.68306
G1 X37.099 Y129.113 E18.69269
G1 X36.315 Y128.946 E18.70634
G1 X35.583 Y128.620 E18.71998
G1 X34.934 Y128.149 E18.73363
G1 X34.398 Y127.554 E18.74728
G1 X33.997 Y126.859 E18.76092
G1 X33.750 Y126.097 E18.77457
G1 X33.665 Y125.291 E18.78836
G1 X33.665 Y74.759 E19.64870
G1 X33.965 Y74.562 F9000.000
G1 X43.208 Y74.564 F9000.000
G1 X40.069 Y71.425 E19.72436 F1500.000
G1 X39.596 Y71.425 E19.73242
G1 X42.429 Y74.259 E19.80071
G1 X41.838 Y74.141 E19.81098
G1 X39.122 Y71.425 E19.87643
G1 X38.649 Y71.425 E19.88449
G1 X41.365 Y74.141 E19.94994
G1 X40.933 Y74.182 E19.95734
G1 X38.198 Y71.447 E20.02324
G1 X37.725 Y71.447 E20.03131
G1 X40.543 Y74.265 E20.09922
G1 X40.191 Y74.387 E20.10555
G1 X37.252 Y71.447 E20.17640
G1 X36.845 Y71.513 E20.18342
G1 X39.864 Y74.532 E20.25617
G1 X39.565 Y74.706 E20.26207
G1 X36.460 Y71.602 E20.33688
G1 X36.133 Y71.748 E20.34299
G1 X39.291 Y74.906 E20.41909
G1 X39.033 Y75.121 E20.42481
G1 X35.815 Y71.903 E20.50236
G1 X35.541 Y72.102 E20.50813
G1 X38.809 Y75.370 E20.58688
G1 X38.589 Y75.623 E20.59259
G1 X35.285 Y72.319 E20.67222
G1 X35.051 Y72.558 E20.67792
G1 X38.416 Y75.923 E20.75901
G1 X38.243 Y76.223 E20.76492
G1 X34.833 Y72.813 E20.84709
G1 X34.660 Y73.113 E20.85299
G1 X38.123 Y76.576 E20.93645
G1 X38.007 Y76.934 E20.94284
G1 X34.495 Y73.422 E21.02748
G1 X34.379 Y73.779 E21.03387
G1 X37.957 Y77.357 E21.12011
G1 X37.932 Y77.806 E21.12776
G1 X34.286 Y74.159 E21.21563
G1 X34.241 Y74.587 E21.22297
G1 X37.988 Y78.334 E21.31327
G1 X38.180 Y79.000 E21.32507
G1 X34.225 Y75.045 E21.42037
G1 X34.225 Y75.518 E21.42844
G1 X54.782 Y96.075 E21.92384
G1 X54.309 Y96.075 E21.93190
G1 X34.225 Y75.991 E22.41590
G1 X34.225 Y76.464 E22.42397
G1 X53.836 Y96.075 E22.89656
G1 X53.363 Y96.075 E22.90463
G1 X34.225 Y76.937 E23.36582
G1 X34.225 Y77.411 E23.37388
G1 X52.889 Y96.075 E23.82367
G1 X52.416 Y96.075 E23.83174
G1 X34.225 Y77.884 E24.27012
G1 X34.225 Y78.357 E24.27819
G1 X51.943 Y96.075 E24.70517
G1 X51.470 Y96.075 E24.71324
G1 X34.225 Y78.830 E25.12882
G1 X34.225 Y79.303 E25.13688
G1 X50.997 Y96.075 E25.54106
G1 X50.524 Y96.075 E25.54912
G1 X34.225 Y79.776 E25.94190
G1 X34.225 Y80.250 E25.94996
G1 X50.050 Y96.075 E26.33134
G1 X49.577 Y96.075 E26.33940
G1 X34.225 Y80.723 E26.70937
G1 X34.225 Y81.196 E26.71743
G1 X49.104 Y96.075 E27.07600
G1 X48.631 Y96.075 E27.08406
G1 X34.225 Y81.669 E27.43123
G1 X34.225 Y82.142 E27.43929
G1 X48.158 Y96.075 E27.77505
G1 X47.685 Y96.075 E27.78312
G1 X34.225 Y82.615 E28.10748
G1 X34.225 Y83.089 E28.11554
G1 X47.211 Y96.075 E28.42849
G1 X46.738 Y96.075 E28.43656
G1 X34.225 Y83.562 E28.73811
G1 X34.225 Y84.035 E28.74617
G1 X46.265 Y96.075 E29.03632
G1 X45.792 Y96.075 E29.04439
G1 X34.225 Y84.508 E29.32313
G1 X34.225 Y84.981 E29.33120
G1 X45.319 Y96.075 E29.59854
G1 X44.845 Y96.075 E29.60661
G1 X34.225 Y85.455 E29.86255
G1 X34.225 Y85.928 E29.87061
G1 X44.372 Y96.075 E30.11515
G1 X43.899 Y96.075 E30.12321
G1 X34.225 Y86.401 E30.35635
G1 X34.225 Y86.874 E30.36441
G1 X43.426 Y96.075 E30.58614
G1 X42.953 Y96.075 E30.59421
G1 X34.225 Y87.347 E30.80454
G1 X34.225 Y87.820 E30.81260
G1 X42.480 Y96.075 E31.01153
G1 X42.006 Y96.075 E31.01959
G1 X34.225 Y88.294 E31.20711
G1 X34.225 Y88.767 E31.21518
G1 X41.533 Y96.075 E31.39130
G1 X41.060 Y96.075 E31.39936
G1 X34.225 Y89.240 E31.56408
G1 X34.225 Y89.713 E31.57214
G1 X40.587 Y96.075 E31.72546
G1 X40.114 Y96.075 E31.73352
G1 X34.225 Y90.186 E31.87543
G1 X34.225 Y90.659 E31.88350
G1 X39.641 Y96.075 E32.01400
G1 X39.167 Y96.075 E32.02207
G1 X34.225 Y91.133 E32.14117
G1 X34.225 Y91.606 E32.14924
G1 X38.694 Y96.075 E32.25694
G1 X38.221 Y96.075 E32.26500
G1 X34.225 Y92.079 E32.36130
G1 X34.225 Y92.552 E32.36937
G1 X37.775 Y96.102 E32.45492
G1 X37.775 Y96.576 E32.46299
G1 X34.225 Y93.025 E32.54854
G1 X34.225 Y93.499 E32.55660
G1 X37.775 Y97.049 E32.64216
G1 X37.775 Y97.522 E32.65022
G1 X34.225 Y93.972 E32.73578
G1 X34.225 Y94.445 E32.74384
G1 X37.775 Y97.995 E32.82939
G1 X37.775 Y98.468 E32.83746
G1 X34.225 Y94.918 E32.92301
G1 X34.225 Y95.391 E32.93107
G1 X37.775 Y98.941 E33.01663
G1 X37.775 Y99.415 E33.02469
G1 X34.225 Y95.864 E33.11025
G1 X34.225 Y96.338 E33.11831
G1 X37.775 Y99.888 E33.20387
G1 X37.775 Y100.361 E33.21193
G1 X34.225 Y96.811 E33.29748
G1 X34.225 Y97.284 E33.30555
G1 X37.775 Y100.834 E33.39110
G1 X37.775 Y101.307 E33.39916
G1 X34.225 Y97.757 E33.48472
G1 X34.225 Y98.230 E33.49278
G1 X37.775 Y101.780 E33.57834
G1 X37.775 Y102.254 E33.58640
G1 X34.225 Y98.703 E33.67195
G1 X34.225 Y99.177 E33.68002
G1 X37.775 Y102.727 E33.76557
G1 X37.775 Y103.200 E33.77364
G1 X34.225 Y99.650 E33.85919
G1 X34.225 Y100.123 E33.86725
G1 X37.775 Y103.673 E33.95281
G1 X37.775 Y104.146 E33.96087
G1 X34.225 Y100.596 E34.04643
G1 X34.225 Y101.069 E34.05449
G1 X37.775 Y104.620 E34.14004
G1 X37.775 Y105.093 E34.14811
G1 X34.225 Y101.543 E34.23366
G1 X34.225 Y102.016 E34.24172
G1 X37.775 Y105.566 E34.32728
G1 X37.775 Y106.039 E34.33534
G1 X34.225 Y102.489 E34.42090
G1 X34.225 Y102.962 E34.42896
G1 X37.775 Y106.512 E34.51452
G1 X37.775 Y106.985 E34.52258
G1 X34.225 Y103.435 E34.60813
G1 X34.225 Y103.908 E34.61620
G1 X37.775 Y107.459 E34.70175
G1 X37.775 Y107.932 E34.70981
G1 X34.225 Y104.382 E34.79537
G1 X34.225 Y104.855 E34.80343
G1 X37.775 Y108.405 E34.88899
G1 X37.775 Y108.878 E34.89705
G1 X34.225 Y105.328 E34.98260
G1 X34.225 Y105.801 E34.99067
G1 X37.775 Y109.351 E35.07622
G1 X37.775 Y109.824 E35.08429
G1 X34.225 Y106.274 E35.16984
G1 X34.225 Y106.747 E35.17790
G1 X37.775 Y110.298 E35.26346
G1 X37.775 Y110.771 E35.27152
G1 X34.225 Y107.221 E35.35708
G1 X34.225 Y107.694 E35.36514
G1 X37.775 Y111.244 E35.45069
G1 X37.775 Y111.717 E35.45876
G1 X34.225 Y108.167 E35.54431
G1 X34.225 Y108.640 E35.55238
G1 X37.775 Y112.190 E35.63793
G1 X37.775 Y112.664 E35.64599
G1 X34.225 Y109.113 E35.73155
G1 X34.225 Y109.587 E35.73961
G1 X37.775 Y113.137 E35.82517
G1 X37.775 Y113.610 E35.83323
G1 X34.225 Y110.060 E35.91878
G1 X34.225 Y110.533 E35.92685
G1 X37.775 Y114.083 E36.01240
G1 X37.775 Y114.556 E36.02046
