; generated by Slic3r 1.0.0RC1 on 2014-02-12 at 23:04:15

; layer_height = 0.2
; perimeters = 2
; top_solid_layers = 4
; bottom_solid_layers = 4
; fill_density = 0.3
; perimeter_speed = 50
; infill_speed = 80
; travel_speed = 150
; nozzle_diameter = 0.35
; filament_diameter = 3
; extrusion_multiplier = 1.20
; perimeters extrusion width = 0.35mm
; infill extrusion width = 0.52mm
; solid infill extrusion width = 0.52mm
; top infill extrusion width = 0.52mm
; first layer extrusion width = 0.33mm

G21 ; set units to millimeters
M190 S75 ; wait for bed temperature to be reached
M104 S192 ; set temperature
G28 ; home all axes
G90 ; use absolute coordinates
G21 ; set units to millimeters
G92 E0 ; reset extrusion distance
G1 Z10 F100
M116 ; Wait for bed and hotend to reach temperature
G1 X0 Y100 E20 F800 ; Extrude 20mm
G92 E0 ; reset extrusion
G1 X10 Z0 F100
M109 S192 ; wait for temperature to be reached
G90 ; use absolute coordinates
G92 E0
M82 ; use absolute distances for extrusion
G1 F1200.000 E-1.00000
G92 E0
G1 Z0.300 F9000.000
G1 X32.910 Y65.450 F9000.000
G1 E1.00000 F1200.000
G1 X33.670 Y65.110 E1.01418 F1500.000
G1 X34.310 Y64.860 E1.02587
G1 X34.970 Y64.690 E1.03748
G1 X35.790 Y64.520 E1.05173
G1 X36.780 Y64.390 E1.06873
G1 X37.200 Y64.370 E1.07589
G1 X122.810 Y64.370 E2.53343
G1 X123.220 Y64.390 E2.54042
G1 X124.200 Y64.520 E2.55725
G1 X125.020 Y64.690 E2.57151
G1 X125.660 Y64.860 E2.58278
G1 X126.290 Y65.100 E2.59426
G1 X127.060 Y65.440 E2.60859
G1 X127.670 Y65.740 E2.62017
G1 X128.240 Y66.120 E2.63183
G1 X128.910 Y66.610 E2.64596
G1 X129.410 Y67.020 E2.65697
G1 X129.870 Y67.470 E2.66793
G1 X130.430 Y68.090 E2.68215
G1 X130.850 Y68.620 E2.69366
G1 X131.220 Y69.180 E2.70509
G1 X131.640 Y69.910 E2.71943
G1 X131.930 Y70.490 E2.73047
G1 X132.170 Y71.090 E2.74147
G1 X132.430 Y71.880 E2.75563
G1 X132.600 Y72.520 E2.76691
G1 X132.710 Y73.180 E2.77830
G1 X132.800 Y74.010 E2.79251
G1 X132.830 Y74.690 E2.80410
G1 X132.830 Y125.290 E3.66558
G1 X132.800 Y125.960 E3.67700
G1 X132.710 Y126.800 E3.69138
G1 X132.600 Y127.460 E3.70278
G1 X132.430 Y128.110 E3.71422
G1 X132.170 Y128.900 E3.72838
G1 X131.930 Y129.500 E3.73938
G1 X131.640 Y130.080 E3.75042
G1 X131.220 Y130.810 E3.76476
G1 X130.850 Y131.370 E3.77618
G1 X130.430 Y131.900 E3.78770
G1 X129.870 Y132.520 E3.80192
G1 X129.410 Y132.970 E3.81288
G1 X128.910 Y133.380 E3.82389
G1 X128.240 Y133.870 E3.83802
G1 X127.670 Y134.250 E3.84968
G1 X127.060 Y134.550 E3.86125
G1 X126.290 Y134.890 E3.87558
G1 X125.660 Y135.130 E3.88706
G1 X125.020 Y135.300 E3.89834
G1 X124.200 Y135.470 E3.91259
G1 X123.370 Y135.590 E3.92687
G1 X122.960 Y135.620 E3.93387
G1 X37.500 Y135.630 E5.38886
G1 X36.630 Y135.590 E5.40369
G1 X35.790 Y135.470 E5.41813
G1 X34.970 Y135.300 E5.43239
G1 X34.310 Y135.130 E5.44399
G1 X33.670 Y134.880 E5.45569
G1 X32.910 Y134.540 E5.46987
G1 X32.340 Y134.250 E5.48076
G1 X31.800 Y133.900 E5.49171
G1 X31.120 Y133.410 E5.50598
G1 X30.590 Y132.990 E5.51749
G1 X30.120 Y132.520 E5.52881
G1 X29.560 Y131.900 E5.54303
G1 X29.140 Y131.370 E5.55455
G1 X28.770 Y130.810 E5.56598
G1 X28.350 Y130.080 E5.58031
G1 X28.060 Y129.500 E5.59135
G1 X27.820 Y128.900 E5.60236
G1 X27.560 Y128.110 E5.61652
G1 X27.380 Y127.430 E5.62849
G1 X27.270 Y126.730 E5.64056
G1 X27.190 Y125.890 E5.65492
G1 X27.170 Y125.290 E5.66514
G1 X27.170 Y74.700 E6.52646
G1 X27.190 Y74.100 E6.53668
G1 X27.270 Y73.260 E6.55104
G1 X27.380 Y72.560 E6.56311
G1 X27.560 Y71.880 E6.57508
G1 X27.820 Y71.090 E6.58924
G1 X28.060 Y70.490 E6.60024
G1 X28.350 Y69.910 E6.61128
G1 X28.770 Y69.180 E6.62562
G1 X29.140 Y68.620 E6.63705
G1 X29.560 Y68.090 E6.64856
G1 X30.120 Y67.470 E6.66279
G1 X30.590 Y67.000 E6.67410
G1 X31.120 Y66.580 E6.68562
G1 X31.800 Y66.090 E6.69989
G1 X32.340 Y65.740 E6.71084
G1 X32.865 Y65.473 E6.72088
G1 F1200.000 E5.72088
G92 E0
G1 X115.221 Y77.003 F9000.000
G1 E1.00000 F1200.000
G1 X115.438 Y76.337 E1.01193 F1500.000
G1 X115.788 Y75.730 E1.02386
G1 X116.257 Y75.209 E1.03579
G1 X116.322 Y75.162 E1.03716
G1 X116.824 Y74.797 E1.04772
G1 X117.464 Y74.512 E1.05966
G1 X118.150 Y74.366 E1.07159
G1 X118.850 Y74.366 E1.08352
G1 X119.536 Y74.512 E1.09545
G1 X120.176 Y74.797 E1.10738
G1 X120.743 Y75.209 E1.11931
G1 X121.212 Y75.730 E1.13124
G1 X121.562 Y76.337 E1.14317
G1 X121.779 Y77.003 E1.15510
G1 X121.852 Y77.700 E1.16703
G1 X121.779 Y78.397 E1.17896
G1 X121.562 Y79.063 E1.19089
G1 X121.212 Y79.670 E1.20282
G1 X120.743 Y80.191 E1.21476
G1 X120.176 Y80.603 E1.22669
G1 X119.536 Y80.888 E1.23862
G1 X118.850 Y81.034 E1.25055
G1 X118.150 Y81.034 E1.26248
G1 X117.464 Y80.888 E1.27441
G1 X116.824 Y80.603 E1.28634
G1 X116.257 Y80.191 E1.29827
G1 X115.788 Y79.670 E1.31020
G1 X115.438 Y79.063 E1.32213
G1 X115.221 Y78.397 E1.33407
G1 X115.148 Y77.700 E1.34599
G1 X115.216 Y77.053 E1.35707
G1 X115.550 Y77.073 F9000.000
G1 X115.745 Y76.473 E1.36781 F1500.000
G1 X116.060 Y75.927 E1.37854
G1 X116.519 Y75.432 E1.39003
G1 X116.992 Y75.088 E1.39999
G1 X117.568 Y74.832 E1.41073
G1 X118.185 Y74.701 E1.42146
G1 X118.815 Y74.701 E1.43220
G1 X119.432 Y74.832 E1.44293
G1 X120.008 Y75.088 E1.45367
G1 X120.518 Y75.459 E1.46440
G1 X120.940 Y75.927 E1.47513
G1 X121.255 Y76.473 E1.48587
G1 X121.450 Y77.073 E1.49660
G1 X121.516 Y77.700 E1.50734
G1 X121.450 Y78.327 E1.51807
G1 X121.255 Y78.927 E1.52881
G1 X120.940 Y79.473 E1.53954
G1 X120.518 Y79.941 E1.55028
G1 X120.008 Y80.312 E1.56101
G1 X119.432 Y80.568 E1.57174
G1 X118.815 Y80.699 E1.58248
G1 X118.185 Y80.699 E1.59321
G1 X117.568 Y80.568 E1.60395
G1 X116.992 Y80.312 E1.61468
G1 X116.482 Y79.941 E1.62542
G1 X116.060 Y79.473 E1.63615
G1 X115.745 Y78.927 E1.64689
G1 X115.550 Y78.327 E1.65762
G1 X115.484 Y77.700 E1.66835
G1 X115.545 Y77.123 E1.67823
G1 X115.310 Y76.841 F9000.000
G1 X44.852 Y77.700 F9000.000
G1 X44.779 Y78.397 E1.69016 F1500.000
G1 X44.562 Y79.063 E1.70210
G1 X44.212 Y79.670 E1.71403
G1 X43.743 Y80.191 E1.72596
G1 X43.176 Y80.603 E1.73789
G1 X42.536 Y80.888 E1.74982
G1 X41.850 Y81.034 E1.76175
G1 X41.150 Y81.034 E1.77368
G1 X40.464 Y80.888 E1.78561
G1 X39.824 Y80.603 E1.79754
G1 X39.257 Y80.191 E1.80947
G1 X38.788 Y79.670 E1.82140
G1 X38.438 Y79.063 E1.83334
G1 X38.221 Y78.397 E1.84527
G1 X38.148 Y77.700 E1.85720
G1 X38.221 Y77.003 E1.86913
G1 X38.438 Y76.337 E1.88106
G1 X38.788 Y75.730 E1.89299
G1 X39.257 Y75.209 E1.90492
G1 X39.824 Y74.797 E1.91685
G1 X40.464 Y74.512 E1.92878
G1 X41.150 Y74.366 E1.94071
G1 X41.850 Y74.366 E1.95264
G1 X42.536 Y74.512 E1.96457
G1 X43.176 Y74.797 E1.97651
G1 X43.743 Y75.209 E1.98844
G1 X44.212 Y75.730 E2.00037
G1 X44.562 Y76.337 E2.01230
G1 X44.779 Y77.003 E2.02423
G1 X44.847 Y77.650 E2.03531
G1 X44.516 Y77.700 F9000.000
G1 X44.450 Y78.327 E2.04604 F1500.000
G1 X44.255 Y78.927 E2.05677
G1 X43.940 Y79.473 E2.06751
G1 X43.518 Y79.941 E2.07824
G1 X43.008 Y80.312 E2.08898
G1 X42.432 Y80.568 E2.09971
G1 X41.815 Y80.699 E2.11045
G1 X41.185 Y80.699 E2.12118
G1 X40.568 Y80.568 E2.13192
G1 X39.992 Y80.312 E2.14265
G1 X39.482 Y79.941 E2.15338
G1 X39.060 Y79.473 E2.16412
G1 X38.745 Y78.927 E2.17485
G1 X38.550 Y78.327 E2.18559
G1 X38.484 Y77.700 E2.19632
G1 X38.550 Y77.073 E2.20706
G1 X38.745 Y76.473 E2.21779
G1 X39.060 Y75.927 E2.22853
G1 X39.482 Y75.459 E2.23926
G1 X39.992 Y75.088 E2.25000
G1 X40.568 Y74.832 E2.26073
G1 X41.185 Y74.701 E2.27146
G1 X41.815 Y74.701 E2.28220
G1 X42.432 Y74.832 E2.29293
G1 X43.008 Y75.088 E2.30367
G1 X43.518 Y75.459 E2.31440
G1 X43.940 Y75.927 E2.32514
G1 X44.255 Y76.473 E2.33587
G1 X44.450 Y77.073 E2.34661
G1 X44.511 Y77.650 E2.35649
G1 X44.799 Y77.877 F9000.000
G1 X38.001 Y96.601 F9000.000
G1 X121.599 Y96.601 E3.77978 F1500.000
G1 X121.599 Y120.799 E4.19177
G1 X38.001 Y120.799 E5.61507
G1 X38.001 Y96.651 E6.02620
G1 X38.335 Y96.935 F9000.000
G1 X121.265 Y96.935 E7.43811 F1500.000
G1 X121.265 Y120.465 E7.83872
G1 X38.335 Y120.465 E9.25063
G1 X38.335 Y96.985 E9.65039
G1 X38.335 Y96.601 F9000.000
G1 X33.999 Y74.726 F9000.000
G1 X34.078 Y73.973 E9.66328 F1500.000
G1 X34.304 Y73.277 E9.67573
G1 X34.670 Y72.644 E9.68818
G1 X35.159 Y72.100 E9.70064
G1 X35.751 Y71.671 E9.71308
G1 X36.419 Y71.373 E9.72554
G1 X37.134 Y71.221 E9.73799
G1 X37.999 Y71.221 E9.75271
G1 X37.999 Y71.199 E9.75308
G1 X122.001 Y71.199 E11.18324
G1 X122.001 Y71.221 E11.18361
G1 X122.866 Y71.221 E11.19834
G1 X123.581 Y71.373 E11.21079
G1 X124.249 Y71.671 E11.22324
G1 X124.841 Y72.100 E11.23569
G1 X125.330 Y72.644 E11.24814
G1 X125.696 Y73.277 E11.26059
G1 X125.922 Y73.973 E11.27304
G1 X126.001 Y74.726 E11.28594
G1 X126.001 Y125.274 E12.14653
G1 X125.922 Y126.027 E12.15943
G1 X125.696 Y126.723 E12.17188
G1 X125.330 Y127.356 E12.18433
G1 X124.841 Y127.899 E12.19678
G1 X124.249 Y128.329 E12.20923
G1 X123.581 Y128.627 E12.22168
G1 X122.866 Y128.779 E12.23413
G1 X122.001 Y128.779 E12.24885
G1 X122.001 Y128.801 E12.24923
G1 X37.999 Y128.801 E13.67938
G1 X37.999 Y128.779 E13.67975
G1 X37.134 Y128.779 E13.69448
G1 X36.419 Y128.627 E13.70693
G1 X35.751 Y128.329 E13.71938
G1 X35.159 Y127.899 E13.73183
G1 X34.670 Y127.356 E13.74428
G1 X34.304 Y126.723 E13.75673
G1 X34.078 Y126.027 E13.76918
G1 X33.999 Y125.274 E13.78208
G1 X33.999 Y74.776 E14.64182
G1 X33.665 Y74.709 F9000.000
G1 X33.750 Y73.903 E14.65561 F1500.000
G1 X33.997 Y73.141 E14.66926
G1 X34.398 Y72.446 E14.68290
G1 X34.934 Y71.851 E14.69655
G1 X35.583 Y71.380 E14.71020
G1 X36.315 Y71.054 E14.72384
G1 X37.099 Y70.887 E14.73749
G1 X37.665 Y70.887 E14.74712
G1 X37.665 Y70.865 E14.74749
G1 X122.335 Y70.865 E16.18903
G1 X122.335 Y70.887 E16.18940
G1 X122.901 Y70.887 E16.19904
G1 X123.685 Y71.054 E16.21268
G1 X124.417 Y71.380 E16.22633
G1 X125.065 Y71.851 E16.23998
G1 X125.602 Y72.446 E16.25362
G1 X126.003 Y73.141 E16.26727
G1 X126.250 Y73.903 E16.28092
G1 X126.335 Y74.709 E16.29471
G1 X126.335 Y125.291 E17.15590
G1 X126.250 Y126.097 E17.16969
G1 X126.003 Y126.859 E17.18334
G1 X125.602 Y127.554 E17.19699
G1 X125.065 Y128.149 E17.21063
G1 X124.417 Y128.620 E17.22428
G1 X123.685 Y128.946 E17.23793
G1 X122.901 Y129.113 E17.25157
G1 X122.335 Y129.113 E17.26121
G1 X122.335 Y129.135 E17.26158
G1 X37.665 Y129.135 E18.70312
G1 X37.665 Y129.113 E18.70349
G1 X37.099 Y129.113 E18.71312
G1 X36.315 Y128.946 E18.72677
G1 X35.583 Y128.620 E18.74041
G1 X34.934 Y128.149 E18.75406
G1 X34.398 Y127.554 E18.76771
G1 X33.997 Y126.859 E18.78135
G1 X33.750 Y126.097 E18.79500
G1 X33.665 Y125.291 E18.80879
G1 X33.665 Y74.759 E19.66913
G1 X33.965 Y74.562 F9000.000
G1 X43.208 Y74.564 F9000.000
G1 X40.069 Y71.425 E19.74479 F1500.000
G1 X39.596 Y71.425 E19.75285
G1 X42.429 Y74.259 E19.82114
G1 X41.838 Y74.141 E19.83141
G1 X39.122 Y71.425 E19.89686
G1 X38.649 Y71.425 E19.90492
G1 X41.365 Y74.141 E19.97037
G1 X40.933 Y74.182 E19.97777
G1 X38.198 Y71.447 E20.04368
G1 X37.725 Y71.447 E20.05174
G1 X40.543 Y74.265 E20.11965
G1 X40.191 Y74.387 E20.12598
G1 X37.252 Y71.447 E20.19683
G1 X36.845 Y71.513 E20.20385
G1 X39.864 Y74.532 E20.27660
G1 X39.565 Y74.706 E20.28250
G1 X36.460 Y71.602 E20.35731
G1 X36.133 Y71.748 E20.36342
G1 X39.291 Y74.906 E20.43952
G1 X39.033 Y75.121 E20.44524
G1 X35.815 Y71.903 E20.52279
G1 X35.541 Y72.102 E20.52856
G1 X38.809 Y75.370 E20.60731
G1 X38.589 Y75.623 E20.61302
G1 X35.285 Y72.319 E20.69265
G1 X35.051 Y72.558 E20.69835
G1 X38.416 Y75.923 E20.77944
G1 X38.243 Y76.223 E20.78535
G1 X34.833 Y72.813 E20.86752
G1 X34.660 Y73.113 E20.87342
G1 X38.123 Y76.576 E20.95688
G1 X38.007 Y76.934 E20.96328
G1 X34.495 Y73.422 E21.04791
G1 X34.379 Y73.779 E21.05430
G1 X37.957 Y77.357 E21.14054
G1 X37.932 Y77.806 E21.14819
G1 X34.286 Y74.159 E21.23606
G1 X34.241 Y74.587 E21.24340
G1 X37.988 Y78.334 E21.33370
G1 X38.180 Y79.000 E21.34550
G1 X34.225 Y75.045 E21.44080
G1 X34.225 Y75.518 E21.44887
G1 X55.082 Y96.375 E21.95150
G1 X54.609 Y96.375 E21.95956
G1 X34.225 Y75.991 E22.45079
G1 X34.225 Y76.464 E22.45886
G1 X54.136 Y96.375 E22.93868
G1 X53.663 Y96.375 E22.94674
G1 X34.225 Y76.937 E23.41517
G1 X34.225 Y77.411 E23.42323
G1 X53.189 Y96.375 E23.88025
G1 X52.716 Y96.375 E23.88832
G1 X34.225 Y77.884 E24.33393
G1 X34.225 Y78.357 E24.34200
G1 X52.243 Y96.375 E24.77621
G1 X51.770 Y96.375 E24.78427
G1 X34.225 Y78.830 E25.20709
G1 X34.225 Y79.303 E25.21515
G1 X51.297 Y96.375 E25.62656
G1 X50.824 Y96.375 E25.63462
G1 X34.225 Y79.776 E26.03463
G1 X34.225 Y80.250 E26.04269
G1 X50.350 Y96.375 E26.43129
G1 X49.877 Y96.375 E26.43936
G1 X34.225 Y80.723 E26.81656
G1 X34.225 Y81.196 E26.82462
G1 X49.404 Y96.375 E27.19042
G1 X48.931 Y96.375 E27.19848
G1 X34.225 Y81.669 E27.55287
G1 X34.225 Y82.142 E27.56094
G1 X48.458 Y96.375 E27.90393
G1 X47.985 Y96.375 E27.91199
G1 X34.225 Y82.615 E28.24358
G1 X34.225 Y83.089 E28.25164
G1 X47.511 Y96.375 E28.57183
G1 X47.038 Y96.375 E28.57989
G1 X34.225 Y83.562 E28.88867
G1 X34.225 Y84.035 E28.89674
G1 X46.565 Y96.375 E29.19412
G1 X46.092 Y96.375 E29.20218
G1 X34.225 Y84.508 E29.48816
G1 X34.225 Y84.981 E29.49622
G1 X45.619 Y96.375 E29.77079
G1 X45.145 Y96.375 E29.77886
G1 X34.225 Y85.455 E30.04203
G1 X34.225 Y85.928 E30.05009
G1 X44.672 Y96.375 E30.30186
G1 X44.199 Y96.375 E30.30992
G1 X34.225 Y86.401 E30.55029
G1 X34.225 Y86.874 E30.55835
G1 X43.726 Y96.375 E30.78731
G1 X43.253 Y96.375 E30.79538
G1 X34.225 Y87.347 E31.01294
G1 X34.225 Y87.820 E31.02100
G1 X42.780 Y96.375 E31.22716
G1 X42.306 Y96.375 E31.23522
G1 X34.225 Y88.294 E31.42997
G1 X34.225 Y88.767 E31.43804
G1 X41.833 Y96.375 E31.62139
G1 X41.360 Y96.375 E31.62945
G1 X34.225 Y89.240 E31.80140
G1 X34.225 Y89.713 E31.80946
G1 X40.887 Y96.375 E31.97000
G1 X40.414 Y96.375 E31.97807
G1 X34.225 Y90.186 E32.12721
G1 X34.225 Y90.659 E32.13527
G1 X39.941 Y96.375 E32.27301
G1 X39.467 Y96.375 E32.28107
G1 X34.225 Y91.133 E32.40741
G1 X34.225 Y91.606 E32.41547
G1 X38.994 Y96.375 E32.53041
G1 X38.521 Y96.375 E32.53847
G1 X34.225 Y92.079 E32.64200
G1 X34.225 Y92.552 E32.65006
G1 X38.048 Y96.375 E32.74219
G1 X37.775 Y96.576 E32.74796
G1 X34.225 Y93.025 E32.83351
G1 X34.225 Y93.499 E32.84158
G1 X37.775 Y97.049 E32.92713
G1 X37.775 Y97.522 E32.93519
G1 X34.225 Y93.972 E33.02075
G1 X34.225 Y94.445 E33.02881
G1 X37.775 Y97.995 E33.11437
G1 X37.775 Y98.468 E33.12243
G1 X34.225 Y94.918 E33.20798
G1 X34.225 Y95.391 E33.21605
G1 X37.775 Y98.941 E33.30160
G1 X37.775 Y99.415 E33.30967
G1 X34.225 Y95.864 E33.39522
G1 X34.225 Y96.338 E33.40328
G1 X37.775 Y99.888 E33.48884
G1 X37.775 Y100.361 E33.49690
G1 X34.225 Y96.811 E33.58246
G1 X34.225 Y97.284 E33.59052
G1 X37.775 Y100.834 E33.67607
G1 X37.775 Y101.307 E33.68414
G1 X34.225 Y97.757 E33.76969
G1 X34.225 Y98.230 E33.77775
G1 X37.775 Y101.780 E33.86331
G1 X37.775 Y102.254 E33.87137
G1 X34.225 Y98.703 E33.95693
G1 X34.225 Y99.177 E33.96499
G1 X37.775 Y102.727 E34.05055
G1 X37.775 Y103.200 E34.05861
G1 X34.225 Y99.650 E34.14416
G1 X34.225 Y100.123 E34.15223
G1 X37.775 Y103.673 E34.23778
G1 X37.775 Y104.146 E34.24584
G1 X34.225 Y100.596 E34.33140
G1 X34.225 Y101.069 E34.33946
G1 X37.775 Y104.620 E34.42502
G1 X37.775 Y105.093 E34.43308
G1 X34.225 Y101.543 E34.51863
G1 X34.225 Y102.016 E34.52670
G1 X37.775 Y105.566 E34.61225
G1 X37.775 Y106.039 E34.62032
G1 X34.225 Y102.489 E34.70587
G1 X34.225 Y102.962 E34.71393
G1 X37.775 Y106.512 E34.79949
G1 X37.775 Y106.985 E34.80755
G1 X34.225 Y103.435 E34.89311
G1 X34.225 Y103.908 E34.90117
G1 X37.775 Y107.459 E34.98672
G1 X37.775 Y107.932 E34.99479
G1 X34.225 Y104.382 E35.08034
G1 X34.225 Y104.855 E35.08841
G1 X37.775 Y108.405 E35.17396
G1 X37.775 Y108.878 E35.18202
G1 X34.225 Y105.328 E35.26758
G1 X34.225 Y105.801 E35.27564
G1 X37.775 Y109.351 E35.36120
G1 X37.775 Y109.824 E35.36926
G1 X34.225 Y106.274 E35.45481
G1 X34.225 Y106.747 E35.46288
G1 X37.775 Y110.298 E35.54843
G1 X37.775 Y110.771 E35.55649
G1 X34.225 Y107.221 E35.64205
G1 X34.225 Y107.694 E35.65011
G1 X37.775 Y111.244 E35.73567
G1 X37.775 Y111.717 E35.74373
G1 X34.225 Y108.167 E35.82929
G1 X34.225 Y108.640 E35.83735
G1 X37.775 Y112.190 E35.92290
G1 X37.775 Y112.664 E35.93097
G1 X34.225 Y109.113 E36.01652
G1 X34.225 Y109.587 E36.02458
G1 X37.775 Y113.137 E36.11014
G1 X37.775 Y113.610 E36.11820
G1 X34.225 Y110.060 E36.20376
G1 X34.225 Y110.533 E36.21182
G1 X37.775 Y114.083 E36.29737
G1 X37.775 Y114.556 E36.30544
